!!!!SEGMENT: Ser2001-Vox_in_rama.krn
!!!id: Ser2001
!!!AGN: Motet
!!!SCT: Sherr (1989)
!!!voices: 4
!!!COM: Claudin de Sermisy
!!!OTL: Vox in rama
**kern	**kern	**kern	**kern
*part4	*part3	*part2	*part1
*staff4	*staff3	*staff2	*staff1
*I"Bassus	*I"Tenor	*I"Altus	*I"Superius
*I'B	*I'T	*I'A	*I'S
*clefF4	*clefGv2	*clefGv2	*clefG2
*k[b-]	*k[b-]	*k[b-]	*k[b-]
*F:	*F:	*F:	*F:
*M2/1	*M2/1	*M2/1	*M2/1
*met(C|)	*met(C|)	*met(C|)	*met(C|)
!!section: Prima pars: Vox in rama
!!!OMD: Prima pars: Vox in rama
=1	=1	=1	=1
1G	1G	1d	1g
1G	1G	1d	1g
=2	=2	=2	=2
0G	1.d	1.g	1.b-y
.	4c	4f	4a
.	4B-y	4e	4g
=3	=3	=3	=3
1G	2B-y	2d	1b-y
.	4A	2e	.
.	4G	.	.
1F	1c	1f	1a
=4	=4	=4	=4
2G	2B-y	2d	2g
2F	2c	2.f	2.a
1D	2.d	.	.
.	.	4e	4g
.	.	[2d	4f
.	4c	.	4e
=5	=5	=5	=5
2.G	4B-y	2d]	2d
.	4A	.	.
.	1G	1g	1b-y
4F	.	.	.
2E-X	.	.	.
[2F	[2c	[2f	[2a
=6	=6	=6	=6
4F]	4c]	4f]	4a]
4G	4B-y	4e	4g
2E	2G	4d	1g
.	.	4c	.
1D	1A	1d	.
.	.	.	2f#i
=7	=7	=7	=7
0GG	[0G	4B-y	1g
.	.	4c	.
.	.	4d	.
.	.	4e-i	.
.	.	1d	1r
=8	=8	=8	=8
1GG	1G]	1B-y	1g
1D	1r	1r	2f
.	.	.	2d
=9	=9	=9	=9
0r	0r	1c	1e
.	.	2B-y	1d
.	.	2G	.
=10	=10	=10	=10
1r	1c	1A	0r
1G	2B-y	1G	.
.	2G	.	.
=11	=11	=11	=11
2F	1A	2r	2r
2D	.	1d	2f
1E	1G	.	2.g
.	.	2c	.
.	.	.	4a
=12	=12	=12	=12
1D	1r	1d	1f
2r	2r	2r	2r
2G	2B-y	2d	2g
=13	=13	=13	=13
2G	2B-y	2d	2g
2G	2B-y	2B-y	2g
2F	2A	2c	2a
4D	4A	4d	4f
4D	4A	4d	4f
=14	=14	=14	=14
1E	1G	1c	1g
[1D	[1A	[1d	[1f
=15	=15	=15	=15
1D]	1A]	1d]	1f]
2r	2r	2r	2r
2G	2G	2d	2g
=16	=16	=16	=16
1D	1F	1.d	1a
[1G	2.G	.	[1b-y
.	.	[2G	.
.	4A	.	.
=17	=17	=17	=17
0G]	4B-y	4G]	1b-]
.	4c	4A	.
.	1d	4B-y	.
.	.	4c	.
.	.	2d	1b-y
.	2B-y	2e	.
=18	=18	=18	=18
2F	2c	2f	2a
2E	2e-X	2.g	1b-y
1F	4d	.	.
.	4c	4f	.
.	[2c	[2f	[2a
=19	=19	=19	=19
1G	2c]	2f]	2a]
.	2B-y	2e	2g
1F	1c	1f	1a
=20	=20	=20	=20
2r	2r	2r	2r
2C	2c	2e	2a
1F	1c	1f	1a
=21	=21	=21	=21
0G	0B-y	1.d	0b-y
.	.	2e-X	.
=22	=22	=22	=22
0C	[0c	[0e-i	[0g
=23	=23	=23	=23
2r	1c]	0e-]	0g]
2C	.	.	.
2E-X	2r	.	.
4E-i	2G	.	.
4E-i	.	.	.
=24	=24	=24	=24
2E-i	2B-y	1e-i	0r
2E-i	4B-y	.	.
.	4B-y	.	.
[1D	2B-y	1r	.
.	2B-y	.	.
=25	=25	=25	=25
1D]	0A	1r	0r
[1C	.	2r	.
.	.	2c	.
=26	=26	=26	=26
1C]	[0G	2e	2r
.	.	4e	2g
.	.	4e	.
1r	.	2e	2b-y
.	.	2e	4b-y
.	.	.	4b-y
=27	=27	=27	=27
1r	1G]	0d	2b-y
.	.	.	2b-y
1D	2r	.	[1a
.	[2A	.	.
=28	=28	=28	=28
1F	2A]	0c	1a]
.	1c	.	.
2C	.	.	[1g
2C	2G	.	.
=29	=29	=29	=29
1E-X	2G	0r	1g]
.	1B-y	.	.
2E-i	.	.	1r
2D	2B-y	.	.
=30	=30	=30	=30
2C	2A	0r	0r
2BB-y	2.G	.	.
1AA	.	.	.
.	8F#iL	.	.
.	8EJ	.	.
.	2F#i	.	.
=31	=31	=31	=31
1GG	1G	0d	1r
1r	1r	.	2r
.	.	.	[2a
=32	=32	=32	=32
0r	0r	1f	2a]
.	.	.	1cc
.	.	2c	.
.	.	2c	2g
=33	=33	=33	=33
0r	0r	1e-X	2g
.	.	.	1b-y
.	.	2e-i	.
.	.	2d	2b-y
=34	=34	=34	=34
1r	1r	2c	2a
.	.	2B-y	2.g
2D	2d	1A	.
.	.	.	8f#iL
.	.	.	8eJ
2D	2d	.	2f#i
=35	=35	=35	=35
2E-X	2B-y	1G	1g
2C	2c	.	.
2D	2B-y	1r	1r
2E-i	2G	.	.
=36	=36	=36	=36
1F	1A	1r	1r
2r	2r	2r	2r
[2D	[2A	[2d	[2dd
=37	=37	=37	=37
2D]	2A]	2d]	2dd]
2D	2A	2d	2dd
2AA	2A	2e	2cc
2A	2A	2c	2cc
=38	=38	=38	=38
2G	2B-y	2d	2b-y
2G	2B-y	2e	2g
1F	1c	1f	1a
=39	=39	=39	=39
2r	2r	2r	1a
1F	1A	1d	.
.	.	.	1r
2E	2G	2c	.
=40	=40	=40	=40
2D	2F	2B-y	0r
2C	2E	2A	.
1D	1F	1B-y	.
=41	=41	=41	=41
1AA	1E	2A	2r
.	.	1f	1a
1r	1r	.	.
.	.	2e	2g
=42	=42	=42	=42
0r	0r	2d	2f
.	.	2c	2e
.	.	1d	1f
=43	=43	=43	=43
2r	2r	2A	2e
1F	1c	1f	1a
2C	2c	2e	2g
=44	=44	=44	=44
2D	2A	2d	2f
2AA	2A	2c	2e
1D	1A	1d	1f
=45	=45	=45	=45
2AA	2A	2c	2e
4D	4A	2.d	2.f
4D	4A	.	.
2D	2F	.	.
.	.	4c	4e
2GG	2G	2B-y	[2d
=46	=46	=46	=46
1AA	1E	1A	2d]
.	.	.	2c#i
[1D	[1D	[1A	1d
=47	=47	=47	=47
1D]	1D]	1A]	1r
1r	1r	1A	1a
=48	=48	=48	=48
1r	1A	1r	0r
1D	1r	1d	.
=49	=49	=49	=49
0r	1c	0r	1f
.	1A	.	1a
=50	=50	=50	=50
1F	0r	1c	1r
1D	.	1d	2r
.	.	.	2a
=51	=51	=51	=51
2r	2A	1r	2cc
2AA	2c	.	2cc
2C	2c	2e	2g
2C	2G	2g	2g
=52	=52	=52	=52
2GG	2G	2g	1b-y
2GG	1B-y	2d	.
1BB-y	.	2d	2.f
.	[2F	[2f	.
.	.	.	4g
=53	=53	=53	=53
2.FF	4F]	2f]	4a
.	4G	.	4b-y
.	4A	2.c	2cc
4GG	4B-y	.	.
4AA	2c	.	2.cc
4BB-y	.	4d	.
2C	[2c	4e	.
.	.	4f	8b-yL
.	.	.	8aJ
=54	=54	=54	=54
2.C	4c]	2g	2.g
.	8B-yL	.	.
.	8AJ	.	.
.	2.G	2.g	.
8BB-yL	.	.	4a
8AAJ	.	.	.
2.GG	.	.	4b-y
.	4A	8fL	4cc
.	.	8eJ	.
.	4B-y	[2d	2dd
4AA	4c	.	.
=55	=55	=55	=55
4BB-y	2d	4d]	2.dd
4C	.	4e	.
2D	2.d	4f	.
.	.	4g	8ccL
.	.	.	8b-yJ
2.D	.	2a	2a
.	8cL	.	.
.	8B-yJ	.	.
.	2A	[2a	2dd
8CL	.	.	.
8BB-yJ	.	.	.
=56	=56	=56	=56
2AA	2c	4a]	2cc
.	.	8gL	.
.	.	8fJ	.
2.BB-y	1.d	1f	2.b-y
4C	.	.	4a
4D	.	2f	2b-y
4E	.	.	.
=57	=57	=57	=57
2F	2c	2f	2a
2BB-y	2d	2f	2b-y
2F	2c	2f	2a
4BB-y	[2d	[2f	[2b-y
4C	.	.	.
=58	=58	=58	=58
4D	2d]	2f]	2b-]
4E	.	.	.
2F	2c	2f	2.a
2G	2B-y	2d	.
.	.	.	4g
2C	2c	2e	[2g
=59	=59	=59	=59
1D	1A	1d	2g]
.	.	.	2f#i
[1GG	[1G	[1d	1g
=60	=60	=60	=60
1GG]	0G]	1d]	2.g
.	.	.	4g
1GG	.	2.d	2b-y
.	.	.	2b-y
.	.	4d	.
=61	=61	=61	=61
1FF	1r	2f	1a
.	.	2f	.
1C	2.G	2e	1g
.	.	2e	.
.	4G	.	.
=62	=62	=62	=62
2.D	2B-y	1d	2r
.	2B-y	.	2dd
4E	.	.	.
2F	1A	2r	2cc
2F	.	2d	2a
=63	=63	=63	=63
2E	1G	2d	2b-y
2E	.	2c	4a
.	.	.	4g
[1D	2r	2d	2f
.	4d	4f	4d
.	4c	4e	4e
=64	=64	=64	=64
0D_	4B-y	4d	4f
.	4A	4c	4g
.	1B-y	1d	4f
.	.	.	4g
.	.	.	4a
.	.	.	4b-y
.	4A	4c	[2g
.	4G	4B-y	.
=65	=65	=65	=65
1D]	2.d	4A	2g]
.	.	4G	.
.	.	2A	2f#i
.	4c	.	.
2r	4d	1G	2g
.	4e	.	.
[2BB-y	[2f	.	[2dd
=66	=66	=66	=66
4BB-]	2f]	2r	4dd]
4C	.	.	4cc
4D	4e	2.f	1b-y
4E	4d	.	.
1F	1c	.	.
.	.	4e	.
.	.	4d	2a
.	.	4c	.
=67	=67	=67	=67
1BB-y	0r	2.d	2.b-y
.	.	8cL	8aL
.	.	8dJ	8b-yJ
1r	.	4c	4a
.	.	4B-y	4g
.	.	4A	[2g
.	.	4G	.
=68	=68	=68	=68
2r	2r	1A	2g]
2D	1d	.	2f#i
2BB-y	.	1G	1g
2C	2c	.	.
=69	=69	=69	=69
2.D	2.B-y	0r	0r
8CL	8AL	.	.
8DJ	8B-yJ	.	.
4C	4A	.	.
4BB-y	4G	.	.
4AA	[2G	.	.
4GG	.	.	.
=70	=70	=70	=70
1AA	2G]	1r	2r
.	2F#i	.	2cc
1GG	1G	2r	2b-y
.	.	2g	2b-y
=71	=71	=71	=71
0r	1r	2f	2a
.	.	2f	2a
.	2r	2e	[1g
.	2c	2e	.
=72	=72	=72	=72
2r	2B-y	1d	1g]
2G	2B-y	.	.
2F	2A	2d	2r
2F	2A	2d	2f
=73	=73	=73	=73
2E	1G	2c	2g
2E	.	2d	2g
1D	1r	2A	2f
.	.	[2d	2a
=74	=74	=74	=74
1r	1r	4d]	2.b-y
.	.	4c	.
.	.	1B-y	.
.	.	.	4a
2r	2r	.	2g
2D	2A	2A	2f#i
=75	=75	=75	=75
2.GG	2.B-y	1G	1g
4AA	4A	.	.
2BB-y	2G	1r	1r
2AA	2F#i	.	.
=76	=76	=76	=76
1GG	1G	1r	1r
2r	2r	2r	2r
2D	2A	2d	2f
=77	=77	=77	=77
2.D	2.A	2.d	2.f
4E	4G	4c	4g
2D	2A	2d	2f
2GG	2B-y	2d	2g
=78	=78	=78	=78
1D	1A	1d	1f
2r	2r	2r	2r
2D	2A	2d	2f
=79	=79	=79	=79
2.D	2.A	2.d	2.f
4E	4G	4c	4g
2D	2A	2d	2f
2GG	2B-y	2d	2g
=80	=80	=80	=80
2.D	2.A	2.d	2.f
4E	4G	4c	4g
2D	2A	2d	2f
2GG	2B-y	2d	2g
=81	=81	=81	=81
1D	1.A	1d	2f
.	.	.	2.d
[1D	.	2.D	.
.	.	.	4e
.	[2D	.	2f
.	.	4E	.
=82	=82	=82	=82
0D_	4D]	2F	2.d
.	4E	.	.
.	2F	2.D	.
.	.	.	4e
.	2.D	.	4f
.	.	4E	4g
.	.	4F	[2a
.	4E	4G	.
=83	=83	=83	=83
1D]	4F	2.A	4a]
.	4G	.	4g
.	2.A	.	4f
.	.	4G	4e
[1D	.	4F	2d
.	4G	4E	.
.	4F	2D	2a
.	4E	.	.
=84	=84	=84	=84
1D]	2D	2A	2f
.	2A	2F	1d
[1D	2F	1D	.
.	[2D	.	[2dd
=85	=85	=85	=85
0D_	2D]	2.d	4dd]
.	.	.	4cc
.	2.d	.	4b-y
.	.	4c	4a
.	.	4B-y	2.dd
.	4c	4A	.
.	4B-y	2d	.
.	4A	.	4cc
=86	=86	=86	=86
1D]	1d	1f	4b-y
.	.	.	4a
.	.	.	2.b-y
2E	2B-y	1e-X	.
.	.	.	4a
2C	2c	.	[2g
=87	=87	=87	=87
1D	1A	1d	2g]
.	.	.	2f#i
1GG	1G	1d	1g
=88	=88	=88	=88
0r	0r	2r	2r
.	.	2A	2a
.	.	2.d	2.b-y
.	.	4c	4a
=89	=89	=89	=89
2r	2r	2B-y	2g
2D	2A	2A	2f#i
2.GG	2.B-y	1G	1g
4AA	4A	.	.
=90	=90	=90	=90
2BB-y	2G	2r	2r
2AA	2F#i	2A	2a
1GG	1G	2.d	2.b-y
.	.	4c	4a
=91	=91	=91	=91
2r	2r	2B-y	2g
2D	2A	2A	2f#i
2.GG	2.B-y	1G	1g
4AA	4A	.	.
=92	=92	=92	=92
2BB-y	2G	2r	1r
2AA	2F#i	2c	.
2GG	2G	2B-y	2d
2r	2c	2A	2f
=93	=93	=93	=93
2G	2B-y	2G	2d
2F	2A	2r	2f
2E	2G	2c	2g
2D	2r	2d	2f
=94	=94	=94	=94
2r	2r	0G	1e
2C	2c	.	.
2.GG	2.B-y	.	1d
4AA	4A	.	.
=95	=95	=95	=95
2BB-y	2G	2r	2r
2AA	2F#i	2c	2a
1GG	2G	2d	2b-y
.	2d	4c	4a
.	.	4B-y	4g
=96	=96	=96	=96
[0D	2.d	1A	4f
.	.	.	4d
.	.	.	2.dd
.	4c	.	.
.	4B-y	2.d	.
.	4A	.	4cc
.	[2d	.	4b-y
.	.	4c	4a
=97	=97	=97	=97
0D]	4d]	4B-y	2.dd
.	4c	4A	.
.	4B-y	2d	.
.	4A	.	4cc
.	1d	1f	4b-y
.	.	.	4a
.	.	.	[2b-y
=98	=98	=98	=98
2E-X	2B-y	1e-X	4b-]
.	.	.	4a
2C	2c	.	1g
1D	1A	1d	.
.	.	.	2f#i
=99	=99	=99	=99
00GGl	00Gl	00dl	00gl
==	==	==	==
*-	*-	*-	*-
!!!system-decoration: [*]
!!!RDF**kern: i = editorial accidental
!!!RDF**kern: l = terminal long
!!!ENC: Benjamin Ory
!!!END: 2021/1/8
!!!EED: Benjamin Ory
!!!EEV: 2021/04/27
!!!YEC: Copyright 2021 Benjamin Ory, All Rights Reserved
!!!ONB: Translated from MusicXML on 2021/04/27
